set-square.svg

<svg fill="currentColor" viewBox="0 0 24 24"><path d="m17.7 17.7-1.1 1.1-.7-.8 1.1-1-2-2-1 1.1-.7-.7 1.1-1.1-1.9-1.9-1.1 1.1-.7-.7 1.1-1.1-2-1.9-1.1 1.1-.7-.7L9 9 7.1 7.1 6 8.1l-.7-.7 1.1-1.1L4 4v16h16zM7 17v-5.8l5.8 5.8z"/></svg>

<svg  viewBox="0 0 24 24" fill="currentColor"><path  d="M17.7 17.7L16.6 18.8L15.9 18L17 17L15 15L14 16.1L13.3 15.4L14.4 14.3L12.5 12.4L11.4 13.5L10.7 12.8L11.8 11.7L9.8 9.8L8.7 10.9L8 10.2L9 9L7.1 7.1L6 8.1L5.3 7.4L6.4 6.3L4 4V20H20L17.7 17.7M7 17V11.2L12.8 17H7Z"/></svg>
